X:27
T: Das Maedchen und der Faehnrich
N: Q0127H
O: Osteuropa, UdSSR, Ukraine, Wolga
N: Verzierung (Vorschlag) . Schlusspause ergaenzt.
R: Ballade, verbotene Liebe, Flucht
M: 4/4
L: 1/8
K: G
B | d3Bd2ed | c3Bc2
dB | AAG2A2d2 | c2B2A2
AB | c2dBA2d2 | c2cBA2
GB | ddd2GAB2 | A2B2G2
AB | c2dBA2d2 | c2cBA2
GB | ddd2GAB2 | A2B2G2z
